X:1
T:Despiteful thus unto myself - Wilbye
T:#
%%score 1 2 { 3 | 4 } 5
L:1/8
Q:1/4=120
M:4/4
K:C
V:1 treble nm="Soprano I"
V:2 treble nm="Soprano II"
V:3 treble nm="Alto I" snm="A"
V:4 treble 
V:5 treble-8 nm="Tenor" snm="T"
V:1
"^Despiteful thus unto myself, I languish""^John Wilbye\n (1574-1638)""^2nd part of a 2-part madrigal, the 1st part being \"Where most my thoughts\"." z8 | %1
w: |
 z8 | z8 | z8 | z8 | z8 |[M:4/4] z8 | z8 |!p! A8- | A4 G4- | G4 F4 | E4 e4- | e4 d2 c2 | B4 B4 | %14
w: |||||||De\-|* spite\-|* ful|thus un|* to my-|self, I|
 (A6 Bc | G8- | G4) G4 | z8 | z4"^cresc." A4 | A4 G4 | c8 | B8 | A8 | z8 | z8 | z8 | z4 c4 | %27
w: lan\- * *||* guish;||And|in dis-|dain,|my-|self,||||my-|
 c4 B4 | e8 | d8 | c4 G4 | z4!p! G4 | G8- | G4 G4 | A4 E4 | G8 | A8 | D8 | z4 G4 | (G4 ^F4) | G8 | %41
w: self from|joy|I|ban- ish;|These|se\-|* cret|thoughts en-|wrap|me|so|in|an\- *|guish,|
"^cresc." A8 | B6 c2 | d8 | (c6 d2) | e8- | e8 | z4 e4 | e4 c4 | B8 | ^c8 | z8 | z8 | z8 | %54
w: That|life, I|hope,|will *|soon||from|bo- dy|va-|nish;||||
 z2!pp! B2 B2 B2 | ^c4 A2 d2- | d=cBA (Bc) d2 | A4 A4 | z4 z2!mf! G2 | G2 G2 A2 G2 | (^F2 G4 F2) | %61
w: And to some|rest will quick|* ly, quick- ly be * con-|vey- ed,|will|quick- ly be con-|vey\- * *|
 G8 | z4 A4 | A2 A2 d4 | ^c2 e4 c2 | B4 A4 | A4 z4 | z2 e2 e2 B2 | ^c2 (A3 B c2) | d4 z4 | z8 | %71
w: ed,|And|to some rest|will quick- ly|be con-|vey'd,|will quick- ly|be con\- * *|vey'd,||
 e2 e4 d2 | ^c4 A4 | ^c4 B4 | A8- | A4 A4 | e8 | e6!pp! A2 | A2 A2 d4 | G2 c4 B2 | A2 B2 A4 | %81
w: That on no|joy, while|so I|liv'd,|* hath|stay-|ed. And|to some rest|will quick- ly|be con- vey-|
 G4 z4 | z8 | z8 | z4 z2!mf! A2 | A2 A2 B2 G2 | B2 c2 d4- | d2 B2 A4 | B3 A Bc d2 | ^c2 (d4 c2) | %90
w: ed,|||and|to some rest will|quick- ly be|* con- vey-|ed, will quick- ly be|con- vey\- *|
 d4 z4 | z4 z2 A2 | B2 B2 ^c2 A2 | ^c2 d2 e4- | e2 =c2 B4 | z2 E2 E2 E2 | ^F3 E F2 A2 | %97
w: ed,|and|to some rest will|quick- ly be|* con- vey'd,|and to some|rest will quick- ly|
 ^G2 (E3 ^F G2) | A2 E2 z4 | z8 | e2 e4 d2 | ^c2 A2 c4 | d4 d4- | d4 ^c4 | B8 | ^c16 |] %106
w: be con\- * *|vey- ed,||That on no|joy, while so|I liv'd,|* hath|stay-|ed.|
V:2
!p! A8- | A4 G4- | G4 F4 | E8- | E4 D4 | C6 D2 |[M:4/4] E4 C4 | (G6 F2) | E8- | E8 | z4 d4 | %11
w: De\-|* spite\-|* ful|thus|* un-|to my-|self, I|lan\- *|guish,||de-|
 c4 c4 | B4 A4- | A4 G4- | G4 F4 | F4 E4 | D8 | C4 z4 | z8 | z8 | z8 | z8 | z4"^cresc." A4 | %23
w: spite- ful|thus un\-|* to|* my-|self, I|lan-|guish:|||||And|
 B4 B4 | c6 B2 | A4 A4 | A4 E4 | G8- | G8 | G8 | z4!p! c4 | d4 d4 | e6 e2 | d4 G4 | c8 | (B6 c2) | %36
w: in dis-|dain, my-|self from|joy I|ban\-||ish;|These|se- cret|thoughts en-|wrap me|so|in *|
 d8- | d8 | G4 G4 | B4 A4 | z8 | z8 | z8 | z8 | z4"^cresc." A4 | B4 B4 | c6 d2 | e4 c4 | B4 A4 | %49
w: an\-||guish, in|an- guish,|||||That|life, I|hope, will|soon from|bo- dy|
 (A4 ^G4) | A6!pp! A2 | A2 A2 d4 | G2 c4 B2 | A2 B2 A4 | G4 z4 | z8 | z8 | z4 z2!mf! A2 | %58
w: va\- *|nish; And|to some rest|will quick- ly|be con- vey-|ed,|||and|
 A2 A2 B2 G2 | B2 c2 d4- | d2 B2 A4 | B3 A Bc d2 | ^c2 d4 c2 | d4 z4 | z4 z2 A2 | B2 B2 ^c2 A2 | %66
w: to some rest will|quick- ly be|* con- vey-|ed, will quick- ly be|con- vey\- *|ed,|and|to some rest will|
 ^c2 d2 e4- | e2 =c2 B4 | z2 E2 E2 E2 | ^F3 E F2 A2 | ^G2 (E3 ^F G2) | A2 E2 z4 | z8 | e2 e4 d2 | %74
w: quick- ly be|* con- vey'd,|and to some|rest will quick- ly|be con\- * *|vey- ed,||That on no|
 ^c2 A2 c4 | d4 d4- | d2 ^c2 B4 | ^c8 | z8 | z8 | z8 | z2!pp! B2 B2 B2 | ^c4 A2 d2- | %83
w: joy, while so|I liv'd,|* hath stay-|ed.||||And to some|rest will quick|
 d=cBA (Bc) d2 | A4 A4 | z4 z2!mf! G2 | G2 G2 A2 G2 | (^F2 G4 F2) | G8 | z4 A4 | A2 A2 d4 | %91
w: * ly, quick- ly be * con-|vey- ed,|will|quick- ly be con-|vey\- * *|ed,|And|to some rest|
 ^c2 e4 c2 | B4 A4 | A4 z4 | z2 e2 e2 B2 | ^c2 (A3 B c2) | d2 d2 z4 | z8 | e2 e4 d2 | ^c4 A4 | %100
w: will quick- ly|be con-|vey'd,|will quick- ly|be con\- * *|vey- ed,||That on no|joy, while|
 ^c4 B4 | A8- | A4 A4 | e8- | e8 | e16 |] %106
w: so I|liv'd,|* hath|stay\-||ed.|
V:3
!p! C8- | C4 B,4- | B,4 B,4- | B,4 A,4- | A,2 (^G,^F,) G,4 | A,8 |[M:4/4] E,4 E4- | E4 (D4- | %8
w: De\-|* spite\-|* ful|* thus|* un\- * to|my-|~~self, I|* lan\-|
 D4 C4- | C4) B,2 E2 | (D2 C4 B,2 | C6 B,A,) | ^G,4 A,4 | B,6 C2 | D2 C2 C4 | B,4 C4- | C4 B,4 | %17
w: |* guish, I|lan\- * *||guish, de-|spite- ful|thus un- to|my- self,|* I|
 (C6 B,2 | A,2 G,2 A,4) | B,8 | z8 | z4"^cresc." E4 | C4 A,4 | ^G,8 | A,4 A4- | A4 F4 | E6 (DC) | %27
w: lan\- *||guish:||And|in dis-|~~dain,|my- self|* from|joy I *|
 D8 | C8 | z4!p! G4 | E4 C4 | B,8 | z8 | z8 | z8 | z4 B,4 | A,4 A,4 | B,6 A,2 | G,8 | z4 D4- | %40
w: ban-|ish,|and|in dis-|dain,||||These|se- cret|thoughts en-|wrap|me|
 D4"^cresc." E4- | E4 A,4 | D8 | G,4 B,4 | C4 A,4 | E6 D2 | C8- | C4 E4 | E4 E4 | E4 E4 | %50
w: * so|* in|an-|guish, That|life, I|hope, will|soon|* from|bo- dy|va- nish;|
 z2!pp! E2 E2 E2 | ^F4 G4 | E3 D (E^F) G2 | (^F2 G4 F2) | G4 z4 | z8 | B,4 B,2 B,2 | %57
w: And to some|rest will|quick- ly be * con-|vey\- * *|ed,||and to some|
 ^C2!mf! A,4 A2- | A2 ^F2 G4 | D2 E2 D4 | z2 D2 D2 D2 | G6 ^F2 | E2 ^F2 E2 E2 | (^F2 D2 F2 G2) | %64
w: rest will quick\-|* ly be|con- vey- ed,|and to some|rest will|quick- ly be con-|vey\- * * *|
 A4 A2 A2- | A2 ^G2 A2 E2- | E2 D4 ^C2 | B,2 A,2 B,4 | A,4 E4 | D3 =C B,2 A,2 | E4 E4- | E4 z4 | %72
w: ed, and to|* some rest will|* quick- ly|be con- vey-|ed, will|quick- ly be con-|vey- ed,||
 E2 E4 D2 | ^C4 z4 | A2 A4 G2 | ^F4 F4 | (^G2 A4 G2) | A2!pp! A,2 A,2 A,2 | D4 B,4 | %79
w: That on no|joy,|while so I|liv'd, hath|stay\- * *|ed. And to some|rest will|
 C3 B, A,2 G,2 | D4 D2 D2 | D2 D2 G4 | E4 A2 A2 | G6 ^F2 | (E2 D4 ^C2) | D8 | z8 | z8 | z8 | %89
w: quick- ly be con-|vey- ed, and|to some rest|will quick- ly|be con-|vey\- * *|ed,||||
!mf! A,4 A,2 A,2 | D6 D2 | (E3 D ^CD E2- | E2) E2 E4- | E2 ^F2 E2 E2 | E2 E4 D2 | ^C4 B,4 | %96
w: and to some|rest will|quick\- * * * *|* ly be|* con- vey- ed,|That on no|joy, while|
 A,2 D2 D2 ^C2 | (B,2 ^C2 B,4) | A,8- | A,8 | A,4 z4 | z2 E2 E2 E2 | ^F2 (D3 E F2) | E8- | E8 | %105
w: so I liv'd, hath|stay\- * *|ed,|||while so I|liv'd, hath * *|stay\-||
 E16 |] %106
w: ed.|
V:4
 z8 |!p! E8- | E4 D4- | D4 C4- | C4 B,4- | B,2 A,2 A,4- |[M:4/4] A,4 G,4 | G,8 | z8 | z8 | z8 | %11
w: |De\-|* spite\-|* ful|* thus|* un- to|* my-|self,||||
 z8 | z8 | z8 | z8 | z8 | z4 G4 | E4 C4- | C2 E4 D2 | E8- | E8 | E8 | E8 | z4"^cresc." E4 | %24
w: |||||un-|to my\-|* self I|lan\-|||guish;|And|
 C4 A,4 | D8 | z8 | z8 | z4 C4 | D8 | E8 | D4!p! G4 | E4 C4 | D4 E4 | (E6 DC) | D8- | D8 | z4 D4 | %38
w: in dis-|dain,|||and|in|dis-|dain, my-|self from|joy I|ban\- * *|ish;||These|
 D4 ^C4 | D4 A,4 | B,4 G,2"^cresc." G,2 | C4 C4 | B,4 G,4 | (G6 F2) | E8 | z4 E4 | E6 D2 | %47
w: se- cret|thoughts en-|wrap me, en-|wrap me|so in|an\- *|guish,|That|life, I|
 C2 C2 C2 (B,A,) | G,4 A,4 | B,8 | A,2!pp! A,2 A,2 A,2 | D4 B,4 | C3 B, A,2 G,2 | D4 D2 D2 | %54
w: hope, will soon from *|bo- dy|va-|nish; And to some|rest will|quick- ly be con-|vey- ed, and|
 D2 D2 G4 | E4 A2 A2 | G6 ^F2 | (E2 D4 ^C2) | D8 | z8 | z8 | z8 |!mf! A,4 A,2 A,2 | D6 D2 | %64
w: to some rest|will quick- ly|be con-|vey\- * *|ed,||||and to some|rest will|
 (E3 D ^CD E2) | E4 E4- | E2 ^F2 E2 E2 | E2 E4 D2 | ^C4 B,4 | A,2 D2 D2 ^C2 | (B,2 ^C2 B,4) | %71
w: quick\- * * * *|ly be|* con- vey- ed,|That on no|joy, while|so I liv'd, hath|stay\- * *|
 A,8- | A,8 | A,4 z4 | z2 E2 E2 E2 | ^F2 (D3 E F2) | E4 E4 | z2!pp! E2 E2 E2 | ^F4 G4 | %79
w: ed,|||while so I|liv'd, hath * *|stay- ed.|And to some|rest will|
 E3 D (E^F) G2 | (^F2 G4 F2) | G4 z4 | z8 | B,4 B,2 B,2 | ^C2!mf! A,4 A2- | A2 ^F2 G4 | D2 E2 D4 | %87
w: quick- ly be * con-|vey\- * *|ed,||and to some|rest will quick\-|* ly be|con- vey- ed,|
 z2 D2 D2 D2 | G6 ^F2 | E2 ^F2 E2 E2 | (^F2 D2 F2 G2) | A4 A2 A2- | A2 ^G2 A2 E2- | E2 D4 ^C2 | %94
w: and to some|rest will|quick- ly be con-|vey\- * * *|ed, and to|* some rest will|* quick- ly|
 B,2 A,2 B,4 | A,4 E4 | D3 =C B,2 A,2 | E4 E4- | E4 z4 | E2 E4 D2 | ^C4 z4 | A2 A4 G2 | ^F4 F4 | %103
w: be con- vey-|ed, will|quick- ly be con-|vey- ed,||That on no|joy,|while so I|liv'd, hath|
 (^G4 A4- | A4 ^G4) | A16 |] %106
w: stay\- *||ed.|
V:5
 z8 | z8 | z8 | z8 | z8 | z8 |[M:4/4][K:treble-8]!p! c8- | c4 B4 | A8 | E8 | G8 | C6 D2 | E8- | %13
w: ||||||De\-|* spite-|ful|thus|un-|to my-|self,|
 E8 | F8 | (G8- | G8 | A6 G2 | F2 E2 F4) | E8- | E4"^cresc." A4 | B4 B4 | c8 | B8 | A8- | A8 | %26
w: |I|lan\-||||guish;|* And|in dis-|dain,|my-|self,||
 A4 z4 | z4 G4 | E4 C4 | B,8 |!p! C8 | G8 | c8 | B4 c4 | (A6 Bc) | G8 | z8 | z8 | z8 | z8 | %40
w: |and|in dis-|dain,|my-|self|from|joy I|ban\- * *|ish;|||||
 z4"^cresc." G4 | G4 ^F4 | G6 A2 | B4 G4 | A4 c4 | B8 | A4 A4 | G4 E4 | E8- | E8 | E8 | z8 | z8 | %53
w: That|life, I|hope, will|soon from|bo- dy|va-|nish, from|bo- dy|va\-||nish;|||
 z2!pp! D2 D2 D2 | G4 E4 | A3 G ^F2 D2 | G8 | A2!mf! =F2 E2 E2 | ^F2 D2 d4- | d2 (cB) A2 B2 | %60
w: And to some|rest will|quick- ly be con-|vey-|ed, and to some|rest will quick\-|* ly * be con-|
 (A2 G2 A4) | G8 | z8 | D4 D2 D2 | A8 | z4 z2 A2 | A2 A2 B2 A2- | A2 (^G^F) G4 | A2 A4 =G2 | %69
w: vey\- * *|ed,||and to some|rest|will|quick- ly be con\-|* vey\- * ed,|That on no|
 ^F2 D2 D4 | z8 | z2 E2 ^F2 ^G2 | A2 B2 ^c2 d2 | e2 e2 e4 | e2 (^c3 d e2) | d2 d4 ^c2 | B2 A2 B4 | %77
w: joy, no joy,||That on no|joy, while so I|liv'd, that on|no joy, * *|while so I|liv'd, hath stay-|
 A4 z4 | z8 | z8 | z2!pp! D2 D2 D2 | G4 E4 | A3 G ^F2 D2 | G8 | A2!mf! =F2 E2 E2 | ^F2 D2 d4- | %86
w: ed.|||And to some|rest will|quick- ly be con-|vey-|ed, and to some|rest will quick\-|
 d2 (cB) A2 B2 | (A2 G2 A4) | G8 | z8 | D4 D2 D2 | A8 | z4 z2 A2 | A2 A2 B2 A2- | A2 (^G^F) G4 | %95
w: * ly * be con-|vey\- * *|ed,||and to some|rest|will|quick- ly be con\-|* vey\- * ed,|
 A2 A4 =G2 | ^F2 D2 D4 | z8 | z2 E2 ^F2 ^G2 | A2 B2 ^c2 d2 | e2 e2 e4 | e2 (^c3 d e2) | d2 d4 ^c2 | %103
w: That on no|joy, no joy,||That on no|joy, while so I|liv'd, that on|no joy, * *|while so I|
 B4 A4 | B8 | A16 |] %106
w: liv'd, hath|stay-|ed.|

